lib/functional/brands/square-logo.svg

<svg xmlns="http://www.w3.org/2000/svg" fill="none" stroke="currentColor" aria-hidden="true" viewBox="0 0 32 32"><g id="Icon-SquareLogo"><g clip-path="url(#clip0_11_3659)"><g id="size=md (32px)"><path id="Vector" stroke-linecap="round" stroke-linejoin="round" stroke-width="2" d="M26 5H6C5.44772 5 5 5.44772 5 6V26C5 26.5523 5.44772 27 6 27H26C26.5523 27 27 26.5523 27 26V6C27 5.44772 26.5523 5 26 5Z"/><path id="Vector_2" stroke-linecap="round" stroke-linejoin="round" stroke-width="2" d="M20 12H12V20H20V12Z"/></g></g></g><defs><clipPath id="clip0_11_3659"><rect width="32" height="32" fill="white" rx="5"/></clipPath></defs></svg>

<svg xmlns="http://www.w3.org/2000/svg" fill="none" stroke="currentColor" aria-hidden="true" viewBox="0 0 32 32"><g stroke="#101828" stroke-linecap="round" stroke-linejoin="round" stroke-width="2" clip-path="url(#a)"><path d="M26 5H6a1 1 0 0 0-1 1v20a1 1 0 0 0 1 1h20a1 1 0 0 0 1-1V6a1 1 0 0 0-1-1Z"/><path d="M20 12h-8v8h8v-8Z"/></g><defs><clipPath id="a"><rect width="32" height="32" fill="#fff" rx="5"/></clipPath></defs></svg>
